tools/download-figma-icons/icons/outlined-medium/engine.svg

<svg width="24" height="24" viewBox="0 0 24 24" fill="none" xmlns="http://www.w3.org/2000/svg">
<path fill-rule="evenodd" clip-rule="evenodd" d="M22.5 18C22.5 18.4125 22.1625 18.75 21.75 18.75H20.25V17.25C20.25 16.8375 19.9125 16.5 19.5 16.5H17.25C16.8375 16.5 16.5 16.8375 16.5 17.25V20.2499H8.60254L6.36755 17.5275C6.22505 17.3475 6.01505 17.25 5.79005 17.25H4.50005V10.5H5.7368C6.15005 10.5 6.4868 10.1625 6.4868 9.74998V8.24998H14.385L17.2275 11.7225C17.37 11.9025 17.5793 12 17.805 12H19.5C19.9125 12 20.25 11.6625 20.25 11.25V8.99998H21.75C22.1625 8.99998 22.5 9.33748 22.5 9.74998V18ZM21.75 7.49998H19.5C19.0875 7.49998 18.75 7.83748 18.75 8.24998V10.5H18.1575L15.315 7.02748C15.1718 6.84748 14.9625 6.74998 14.7368 6.74998H10.875V4.49999H13.5C13.9125 4.49999 14.25 4.16249 14.25 3.74999C14.25 3.33749 13.9125 2.99999 13.5 2.99999H6.75004C6.32929 2.99999 6.00005 3.33749 6.00005 3.74999C6.00005 4.16249 6.32929 4.49999 6.75004 4.49999H9.37504V6.74998H5.7368C5.32505 6.74998 4.9868 7.08748 4.9868 7.49998V8.99998H3.75005C3.3293 8.99998 3.00005 9.33748 3.00005 9.74998V13.125H1.50006V10.5C1.50006 10.0875 1.16256 9.74998 0.750059 9.74998C0.32931 9.74998 6.1035e-05 10.0875 6.1035e-05 10.5V17.25C6.1035e-05 17.6625 0.32931 18 0.750059 18C1.16256 18 1.50006 17.6625 1.50006 17.25V14.625H3.00005V18C3.00005 18.4125 3.3293 18.75 3.75005 18.75H5.43755L7.67179 21.4724C7.81504 21.6524 8.02504 21.7499 8.25004 21.7499H17.25C17.6625 21.7499 18 21.4124 18 20.9999V18H18.75V19.5C18.75 19.9124 19.0875 20.2499 19.5 20.2499H21.75C22.9868 20.2499 24 19.2375 24 18V9.74998C24 8.51248 22.9868 7.49998 21.75 7.49998Z" fill="black"/>
</svg>

<svg width="24" height="24" viewBox="0 0 24 24" fill="none" xmlns="http://www.w3.org/2000/svg"><path fill-rule="evenodd" clip-rule="evenodd" d="M22.5 18c0 .413-.337.75-.75.75h-1.5v-1.5a.752.752 0 0 0-.75-.75h-2.25a.752.752 0 0 0-.75.75v3H8.603l-2.235-2.723a.728.728 0 0 0-.578-.277H4.5V10.5h1.237c.413 0 .75-.338.75-.75v-1.5h7.898l2.842 3.473c.143.18.352.277.578.277H19.5c.413 0 .75-.338.75-.75V9h1.5c.413 0 .75.337.75.75V18Zm-.75-10.5H19.5a.752.752 0 0 0-.75.75v2.25h-.593l-2.842-3.473a.73.73 0 0 0-.578-.277h-3.862V4.5H13.5c.412 0 .75-.338.75-.75A.752.752 0 0 0 13.5 3H6.75c-.42 0-.75.337-.75.75 0 .412.33.75.75.75h2.625v2.25H5.737a.753.753 0 0 0-.75.75V9H3.75c-.42 0-.75.337-.75.75v3.375H1.5V10.5a.752.752 0 0 0-.75-.75c-.42 0-.75.338-.75.75v6.75c0 .413.33.75.75.75.413 0 .75-.337.75-.75v-2.625H3V18c0 .413.33.75.75.75h1.688l2.234 2.722a.73.73 0 0 0 .578.278h9c.413 0 .75-.338.75-.75v-3h.75v1.5c0 .412.337.75.75.75h2.25A2.257 2.257 0 0 0 24 18V9.75a2.257 2.257 0 0 0-2.25-2.25Z" fill="currentColor"/></svg>
